X: 309
C: Jon Magnusson
Z: Transcribed to abcby Jon Magnusson 080623
M: 3/4
L: 1/8
K: Bb
A2 FD A,2|B,D FB d2|d2 ^cd =e^c|d4 d2|c2 C=E FG|AF CA, C=E|FE FA Bd|ed ^cd B2|
A2 FD A,2|B,D FB d2|d2 ^cd =e^c|d4 d2|A,2 E2E2|C2 E2 E2|A,2 =B,2 ^C2|D6:|
|:[K: F] A,2 F2 F2|A,2 F2 F2|B,2 D2 D2|B,2 D2 D2|C2 E2 E2|C2 D2 E2|F3 F G2|A6|
A,2 F2 F2|A,2 F2 F2|B,2 D2 D2|B,2 D2 D2|C2 E2 E2|A,2 E2 E2|E2 DE GE|[1 F6:|[2 F3 _EDC|]
|:[K: Bb]B,2 D2 D2|B,2 D2 D2|E2 G2 G2|FA c2 f2|a3 g f2|f3 e c2|cA BA GF|DF CE DE|
D2 DC B,2|B,2 D2 D2|B,2 D2 D2|E2 G2 G2|E2 G2 G2|F2 FE DC|B,6:|
(:musicend:)

(:music:)
